assets/icons/illus/magic-trick.svg

<?xml version="1.0" encoding="UTF-8" standalone="no"?>
<svg
   xmlns:dc="http://purl.org/dc/elements/1.1/"
   xmlns:cc="http://creativecommons.org/ns#"
   xmlns:rdf="http://www.w3.org/1999/02/22-rdf-syntax-ns#"
   xmlns:svg="http://www.w3.org/2000/svg"
   xmlns="http://www.w3.org/2000/svg"
   xmlns:sodipodi="http://sodipodi.sourceforge.net/DTD/sodipodi-0.dtd"
   xmlns:inkscape="http://www.inkscape.org/namespaces/inkscape"
   width="24px"
   height="24px"
   viewBox="0 0 24 24"
   version="1.1"
   id="svg19"
   sodipodi:docname="icon-magic-trick.svg"
   inkscape:version="0.92.3 (2405546, 2018-03-11)">
  <metadata
     id="metadata23">
    <rdf:RDF>
      <cc:Work
         rdf:about="">
        <dc:format>image/svg+xml</dc:format>
        <dc:type
           rdf:resource="http://purl.org/dc/dcmitype/StillImage" />
      </cc:Work>
    </rdf:RDF>
  </metadata>
  <sodipodi:namedview
     pagecolor="#ffffff"
     bordercolor="#666666"
     borderopacity="1"
     objecttolerance="10"
     gridtolerance="10"
     guidetolerance="10"
     inkscape:pageopacity="0"
     inkscape:pageshadow="2"
     inkscape:window-width="712"
     inkscape:window-height="480"
     id="namedview21"
     showgrid="false"
     inkscape:zoom="9.8333333"
     inkscape:cx="12"
     inkscape:cy="12"
     inkscape:window-x="1368"
     inkscape:window-y="322"
     inkscape:window-maximized="0"
     inkscape:current-layer="Doc-readers---201804" />
  <!-- Generator: Sketch 50.2 (55047) - http://www.bohemiancoding.com/sketch -->
  <title
     id="title2">icon-magic-trick</title>
  <desc
     id="desc4">Created with Sketch.</desc>
  <defs
     id="defs6" />
  <g
     id="Doc-readers---201804"
     stroke="none"
     stroke-width="1"
     fill="none"
     fill-rule="evenodd">
    <g
       id="icon-magic-trick"
       fill="#000000"
       fill-rule="nonzero"
       style="fill:#ffffff;fill-opacity:1">
      <path
         d="M16.236,5.86926316 C15.9893684,5.62263158 15.5895789,5.62263158 15.3429474,5.86926316 L0.185052632,21.0271579 C-0.0615789474,21.2737895 -0.0615789474,21.6735789 0.185052632,21.9202105 L2.07978947,23.8149474 C2.20294737,23.9384211 2.36463158,24 2.52631579,24 C2.688,24 2.84968421,23.9384211 2.97284211,23.8149474 L18.1307368,8.65705263 C18.3773684,8.41042105 18.3773684,8.01063158 18.1307368,7.764 L16.236,5.86926316 Z M14.5263158,10.4753684 L13.5246316,9.47368421 L15.7894737,7.20915789 L16.7911579,8.21052632 L14.5263158,10.4753684 Z"
         id="Shape"
         style="fill:#ffffff;fill-opacity:1" />
      <path
         d="M14.3264211,2.49378947 L14.9744211,2.70978947 L15.1904211,3.35747368 C15.2763158,3.61547368 15.5175789,3.78947368 15.7894737,3.78947368 C16.0613684,3.78947368 16.3026316,3.61547368 16.3885263,3.35747368 L16.6045263,2.70978947 L17.2525263,2.49378947 C17.5102105,2.40789474 17.6842105,2.16663158 17.6842105,1.89473684 C17.6842105,1.62284211 17.5102105,1.38157895 17.2525263,1.29568421 L16.6045263,1.07968421 L16.3885263,0.432 C16.3026316,0.174 16.0613684,0 15.7894737,0 C15.5175789,0 15.2763158,0.174 15.1904211,0.432 L14.9744211,1.07968421 L14.3264211,1.29568421 C14.0687368,1.38157895 13.8947368,1.62284211 13.8947368,1.89473684 C13.8947368,2.16663158 14.0687368,2.40789474 14.3264211,2.49378947 Z"
         id="path9"
         style="fill:#ffffff;fill-opacity:1" />
      <path
         d="M9.27410526,5.02010526 L9.92178947,5.23610526 L10.1377895,5.88378947 C10.2236842,6.14178947 10.4649474,6.31578947 10.7368421,6.31578947 C11.0087368,6.31578947 11.25,6.14178947 11.3358947,5.88378947 L11.5518947,5.23610526 L12.1995789,5.02010526 C12.4575789,4.93421053 12.6315789,4.69294737 12.6315789,4.42105263 C12.6315789,4.14915789 12.4575789,3.90789474 12.1995789,3.822 L11.5518947,3.606 L11.3358947,2.95831579 C11.25,2.70031579 11.0087368,2.52631579 10.7368421,2.52631579 C10.4649474,2.52631579 10.2236842,2.70031579 10.1377895,2.95831579 L9.92178947,3.606 L9.27410526,3.822 C9.01610526,3.90789474 8.84210526,4.14915789 8.84210526,4.42105263 C8.84210526,4.69294737 9.01610526,4.93421053 9.27410526,5.02010526 Z"
         id="path11"
         style="fill:#ffffff;fill-opacity:1" />
      <path
         d="M22.3051579,11.4009474 L21.6571579,11.1849474 L21.4411579,10.5372632 C21.3552632,10.2792632 21.114,10.1052632 20.8421053,10.1052632 C20.5702105,10.1052632 20.3289474,10.2792632 20.2430526,10.5372632 L20.0270526,11.1849474 L19.3790526,11.4009474 C19.1213684,11.4868421 18.9473684,11.7281053 18.9473684,12 C18.9473684,12.2718947 19.1213684,12.5131579 19.3790526,12.5990526 L20.0270526,12.8150526 L20.2430526,13.4630526 C20.3289474,13.7207368 20.5702105,13.8947368 20.8421053,13.8947368 C21.114,13.8947368 21.3552632,13.7207368 21.4411579,13.4630526 L21.6571579,12.8150526 L22.3051579,12.5990526 C22.5628421,12.5131579 22.7368421,12.2718947 22.7368421,12 C22.7368421,11.7281053 22.5628421,11.4868421 22.3051579,11.4009474 Z"
         id="path13"
         style="fill:#ffffff;fill-opacity:1" />
      <path
         d="M23.5683158,4.45357895 L22.4466316,4.07968421 L22.0727368,2.95831579 C21.9868421,2.70031579 21.7455789,2.52631579 21.4736842,2.52631579 C21.2017895,2.52631579 20.9605263,2.70031579 20.8746316,2.95831579 L20.5007368,4.07968421 L19.3790526,4.45357895 C19.1213684,4.53947368 18.9473684,4.78073684 18.9473684,5.05263158 C18.9473684,5.32452632 19.1213684,5.56578947 19.3790526,5.65168421 L20.5007368,6.02557895 L20.8746316,7.14694737 C20.9605263,7.40494737 21.2017895,7.57894737 21.4736842,7.57894737 C21.7455789,7.57894737 21.9868421,7.40494737 22.0727368,7.14694737 L22.4466316,6.02557895 L23.5683158,5.65168421 C23.826,5.56578947 24,5.32452632 24,5.05263158 C24,4.78073684 23.826,4.53947368 23.5683158,4.45357895 Z"
         id="path15"
         style="fill:#ffffff;fill-opacity:1" />
    </g>
  </g>
</svg>

<svg xmlns="http://www.w3.org/2000/svg" width="24" height="24"><g fill="#fff" fill-rule="nonzero"><path d="M16.236 5.87a.631.631 0 0 0-.893 0L.185 21.026a.631.631 0 0 0 0 .893l1.895 1.895a.629.629 0 0 0 .893 0L18.13 8.657a.631.631 0 0 0 0-.893l-1.895-1.895zm-1.71 4.605l-1.001-1.001 2.264-2.265 1.002 1.002-2.265 2.264zM14.326 2.494l.648.216.216.647a.631.631 0 0 0 1.199 0l.216-.647.648-.216a.631.631 0 0 0 0-1.198l-.648-.216-.216-.648a.631.631 0 0 0-1.199 0l-.216.648-.648.216a.631.631 0 0 0 0 1.198zM9.274 5.02l.648.216.216.648a.631.631 0 0 0 1.198 0l.216-.648.648-.216a.631.631 0 0 0 0-1.198l-.648-.216-.216-.648a.631.631 0 0 0-1.198 0l-.216.648-.648.216a.631.631 0 0 0 0 1.198zM22.305 11.4l-.648-.215-.216-.648a.631.631 0 0 0-1.198 0l-.216.648-.648.216a.631.631 0 0 0 0 1.198l.648.216.216.648a.631.631 0 0 0 1.198 0l.216-.648.648-.216a.631.631 0 0 0 0-1.198zM23.568 4.454l-1.121-.374-.374-1.122a.631.631 0 0 0-1.198 0L20.5 4.08l-1.122.374a.631.631 0 0 0 0 1.198l1.122.374.374 1.12a.631.631 0 0 0 1.198 0l.374-1.12 1.121-.374a.631.631 0 0 0 0-1.198z"/></g></svg>
